dist/images/current-areas-of-focus/physics.svg

<svg  xmlns="http://www.w3.org/2000/svg" xmlns:xlink="http://www.w3.org/1999/xlink" version="1.0" width="358px" height="360px" id="con-struct" viewBox="24.9491 4.49057 343.051 344.616" preserveAspectRatio="xMidYMid meet"><rect id="svgEditorBackground" x="-31.175983428955078" y="-49.991092681884766" width="452.2317810058594" height="452.23175048828125" style="fill: none; stroke: none;"/>
  <defs id="defs5">
    <linearGradient id="g_background2">
      <stop style="stop-color:#c4c4c4;stop-opacity:0.77419353" offset="0" id="c_5811"/>
      <stop style="stop-color:#767676;stop-opacity:0" offset="1" id="c_5813"/>
    </linearGradient>
    <linearGradient x1="151.79547" y1="-810.5" x2="152.59732" y2="-698.83923" id="g_5815" xlink:href="#g_background2" gradientUnits="userSpaceOnUse" gradientTransform="translate(-5.4271,827.3688)"/>
    <linearGradient id="g_5774">
      <stop style="stop-color:#474747;stop-opacity:0.32258064" offset="0" id="c_5776"/>
      <stop style="stop-color:#c5c5c5;stop-opacity:0.47096774" offset="0.57943922" id="c_5780"/>
      <stop style="stop-color:#f4f4f4;stop-opacity:0.78431374" offset="1" id="c_5778"/>
    </linearGradient>
    <linearGradient x1="92.599998" y1="304.5" x2="263.89001" y2="26.290001" id="g_5807" xlink:href="#g_5774" gradientUnits="userSpaceOnUse" gradientTransform="matrix(0.851641,-0.524127,0.524127,0.851641,-45.8947,133.2112)"/>
    <linearGradient id="g_background">
      <stop style="stop-color:#000000;stop-opacity:0.33333334;" offset="0.00000000" id="col_01"/>
      <stop style="stop-color:#000000;stop-opacity:0.078431375;" offset="1.0000000" id="col_02"/>
    </linearGradient>
    <linearGradient id="g_0003">
      <stop id="col_03" style="stop-color:#c8c8c8;stop-opacity:1" offset="0"/>
      <stop id="col_04" style="stop-color:#646464;stop-opacity:1" offset="1"/>
    </linearGradient>
    <linearGradient id="g_0001">
      <stop id="col_05" style="stop-color:#d7d7d7;stop-opacity:1" offset="0"/>
      <stop id="col_06" style="stop-color:#c8c8c8;stop-opacity:1" offset="1"/>
    </linearGradient>
    <linearGradient id="g_0002">
      <stop id="col_07" style="stop-color:#d7d7d7;stop-opacity:1" offset="0"/>
      <stop id="col_08" style="stop-color:#ffffff;stop-opacity:1" offset="1"/>
    </linearGradient>
    <linearGradient x1="24.041630" y1="215.04311" x2="340.82547" y2="215.04311" id="g_0008" xlink:href="#g_0002" gradientUnits="userSpaceOnUse"/>
    <linearGradient x1="51.500000" y1="197.35370" x2="51.500000" y2="137.49948" id="g_0007" xlink:href="#g_0001" gradientUnits="userSpaceOnUse" gradientTransform="translate(-0.500000,6.750000)"/>
    <linearGradient x1="58.000000" y1="157.00000" x2="371.50000" y2="157.00000" id="linearGradient3124" xlink:href="#g_0003" gradientUnits="userSpaceOnUse"/>
    <mask id="mask3114">
      <g id="g3073">
        <rect width="316.78384" height="33.941124" x="24.041630" y="198.07254" id="rect3039" style="opacity:1.0000000;fill:url(#g_0008);fill-opacity:1.0000000;fill-rule:nonzero;stroke:none;stroke-width:15.000000;stroke-linecap:round;stroke-linejoin:round;stroke-miterlimit:4.0000000;stroke-dasharray:none;stroke-dashoffset:0.00000000;stroke-opacity:1.0000000"/>
        <rect width="41.000000" height="59.750000" x="24.000000" y="144.25000" id="rect3053" style="opacity:1.0000000;fill:url(#g_0007);fill-opacity:1.0000000;fill-rule:nonzero;stroke:none;stroke-width:15.000000;stroke-linecap:round;stroke-linejoin:round;stroke-miterlimit:4.0000000;stroke-dasharray:none;stroke-dashoffset:0.00000000;stroke-opacity:1.0000000"/>
        <rect width="313.50000" height="78.000000" x="58.000000" y="118.00000" id="rect3063" style="opacity:1.0000000;fill:url(#linearGradient3124);fill-opacity:1.0000000;fill-rule:nonzero;stroke:none;stroke-width:15.000000;stroke-linecap:round;stroke-linejoin:round;stroke-miterlimit:4.0000000;stroke-dasharray:none;stroke-dashoffset:0.00000000;stroke-opacity:1.0000000"/>
      </g>
    </mask>
    <linearGradient x1="24.041630" y1="215.04311" x2="340.82547" y2="215.04311" id="g_0006" xlink:href="#g_0002" gradientUnits="userSpaceOnUse"/>
    <linearGradient x1="51.500000" y1="197.35370" x2="51.500000" y2="137.49948" id="g_0005" xlink:href="#g_0001" gradientUnits="userSpaceOnUse" gradientTransform="translate(-0.500000,6.750000)"/>
    <linearGradient x1="58.000000" y1="157.00000" x2="371.50000" y2="157.00000" id="linearGradient1939" xlink:href="#g_0003" gradientUnits="userSpaceOnUse"/>
    <mask id="mask1929">
      <g transform="matrix(1.000000,0.000000,0.000000,-1.000000,216.0000,226.0137)" id="g1915">
        <rect width="316.78384" height="33.941124" x="24.041630" y="198.07254" id="rect1917" style="opacity:1.0000000;fill:url(#g_0006);fill-opacity:1.0000000;fill-rule:nonzero;stroke:none;stroke-width:15.000000;stroke-linecap:round;stroke-linejoin:round;stroke-miterlimit:4.0000000;stroke-dasharray:none;stroke-dashoffset:0.00000000;stroke-opacity:1.0000000"/>
        <rect width="41.000000" height="59.750000" x="24.000000" y="144.25000" id="rect1919" style="opacity:1.0000000;fill:url(#g_0005);fill-opacity:1.0000000;fill-rule:nonzero;stroke:none;stroke-width:15.000000;stroke-linecap:round;stroke-linejoin:round;stroke-miterlimit:4.0000000;stroke-dasharray:none;stroke-dashoffset:0.00000000;stroke-opacity:1.0000000"/>
        <rect width="313.50000" height="78.000000" x="58.000000" y="118.00000" id="rect1921" style="opacity:1.0000000;fill:url(#linearGradient1939);fill-opacity:1.0000000;fill-rule:nonzero;stroke:none;stroke-width:15.000000;stroke-linecap:round;stroke-linejoin:round;stroke-miterlimit:4.0000000;stroke-dasharray:none;stroke-dashoffset:0.00000000;stroke-opacity:1.0000000"/>
      </g>
    </mask>
    <linearGradient collect="always" xlink:href="#g_background" id="g_0004" gradientUnits="userSpaceOnUse" gradientTransform="matrix(0.835868,-0.514420,0.514420,0.835868,-43.89779,135.7926)" x1="92.599998" y1="304.50000" x2="263.79999" y2="26.290001"/>
  </defs>
  
  <g groupmode="layer" id="layer2" label="image" style="display:inline">
    <path d="M 225.00000,181.00000 C 225.00000,195.07600 213.57600,206.50000 199.50000,206.50000 C 185.42400,206.50000 174.00000,195.07600 174.00000,181.00000 C 174.00000,166.92400 185.42400,155.50000 199.50000,155.50000 C 213.57600,155.50000 225.00000,166.92400 225.00000,181.00000 z M 192.25000,173.25000 C 189.05841,177.31310 187.61682,185.62621 183.68136,181.00091 C 181.76588,178.74966 184.47383,170.51673 187.50000,167.75000 C 190.28690,165.20202 197.02754,160.76957 199.93392,162.87027 C 205.26845,166.72601 195.75693,168.78545 192.25000,173.25000 z " id="path3096" style="fill:#000000;fill-opacity:1.0000000;fill-rule:evenodd;stroke:none;stroke-width:15.000000;stroke-linecap:round;stroke-linejoin:round;stroke-miterlimit:4.0000000;stroke-dashoffset:0.00000000;stroke-opacity:1.0000000"/>
    <path d="M 354.00000,202.00000 C 380.00000,178.00000 385.00000,128.00000 197.00000,128.00000 C 102.49868,128.00000 27.499008,151.61959 27.499008,178.50000 C 27.499008,200.77248 66.500000,229.00000 200.00000,229.00000 C 274.98080,229.00000 298.32116,222.58113 304.67142,221.61764 C 309.22690,220.92646 339.04662,224.54785 337.53009,209.22013 C 336.53371,199.14966 320.10476,206.45848 311.41421,210.82843 C 297.19147,217.98018 270.11052,222.35355 200.00000,222.35355 C -31.175983,222.35355 -7.7903763,134.00000 197.00000,134.00000 C 421.05580,134.00000 354.00000,204.00000 354.00000,202.00000 z " mask="url(#mask3114)" id="path3154" style="fill:#000000;fill-opacity:1.0000000;fill-rule:evenodd;stroke:none;stroke-width:1.0000000px;stroke-linecap:butt;stroke-linejoin:miter;stroke-opacity:1.0000000"/>
    <path d="M 354.00000,202.00000 C 380.00000,178.00000 385.00000,128.00000 197.00000,128.00000 C 102.49868,128.00000 27.499008,151.61959 27.499008,178.50000 C 27.499008,200.77248 66.500000,229.00000 200.00000,229.00000 C 274.98080,229.00000 298.32116,222.58113 304.67142,221.61764 C 309.22690,220.92646 339.04662,224.54785 337.53009,209.22013 C 336.53371,199.14966 320.10476,206.45848 311.41421,210.82843 C 297.19147,217.98018 270.11052,222.35355 200.00000,222.35355 C -31.175983,222.35355 -7.7903763,134.00000 197.00000,134.00000 C 421.05580,134.00000 354.00000,204.00000 354.00000,202.00000 z " transform="matrix(0.000000,1.000000,-1.000000,0.000000,377.8151,-18.81511)" mask="url(#mask3114)" id="path3168" style="fill:#000000;fill-opacity:1.0000000;fill-rule:evenodd;stroke:none;stroke-width:1.0000000px;stroke-linecap:butt;stroke-linejoin:miter;stroke-opacity:1.0000000"/>
    <path d="M 570.00000,24.013664 C 596.00000,48.013664 601.00000,98.013664 413.00000,98.013664 C 318.49868,98.013664 243.49901,74.394074 243.49901,47.513664 C 243.49901,25.241184 282.50000,-2.9863358 416.00000,-2.9863358 C 490.98080,-2.9863358 514.32116,3.4325342 520.67142,4.3960242 C 525.22690,5.0872042 555.04662,1.4658142 553.53009,16.793534 C 552.53371,26.864004 536.10476,19.555184 527.41421,15.185234 C 513.19147,8.0334842 486.11052,3.6601142 416.00000,3.6601142 C 184.82402,3.6601142 208.20962,92.013664 413.00000,92.013664 C 637.05580,92.013664 570.00000,22.013664 570.00000,24.013664 z " transform="matrix(-0.707107,-0.707107,0.707107,-0.707107,459.4724,507.0144)" mask="url(#mask1929)" id="path1913" style="fill:#000000;fill-opacity:1.0000000;fill-rule:evenodd;stroke:none;stroke-width:1.0000000px;stroke-linecap:butt;stroke-linejoin:miter;stroke-opacity:1.0000000"/>
    <path d="M 570.00000,24.013664 C 596.00000,48.013664 601.00000,98.013664 413.00000,98.013664 C 318.49868,98.013664 243.49901,74.394074 243.49901,47.513664 C 243.49901,25.241184 282.50000,-2.9863358 416.00000,-2.9863358 C 490.98080,-2.9863358 514.32116,3.4325342 520.67142,4.3960242 C 525.22690,5.0872042 555.04662,1.4658142 553.53009,16.793534 C 552.53371,26.864004 536.10476,19.555184 527.41421,15.185234 C 513.19147,8.0334842 486.11052,3.6601142 416.00000,3.6601142 C 184.82402,3.6601142 208.20962,92.013664 413.00000,92.013664 C 637.05580,92.013664 570.00000,22.013664 570.00000,24.013664 z " transform="matrix(0.707107,-0.707107,0.707107,0.707107,-127.1146,440.2454)" mask="url(#mask1929)" id="path1941" style="fill:#000000;fill-opacity:1.0000000;fill-rule:evenodd;stroke:none;stroke-width:1.0000000px;stroke-linecap:butt;stroke-linejoin:miter;stroke-opacity:1.0000000"/>
  </g>
</svg>

<svg xmlns="http://www.w3.org/2000/svg" xmlns:xlink="http://www.w3.org/1999/xlink" version="1" width="358" height="360" viewBox="24.9491 4.49057 343.051 344.616"><path fill="none" d="M-31.176-49.99h452.232v452.23H-31.176z"/><defs><linearGradient id="a"><stop offset="0" stop-color="#c4c4c4" stop-opacity=".774"/><stop offset="1" stop-color="#767676" stop-opacity="0"/></linearGradient><linearGradient id="b"><stop offset="0" stop-color="#474747" stop-opacity=".323"/><stop offset=".579" stop-color="#c5c5c5" stop-opacity=".471"/><stop offset="1" stop-color="#f4f4f4" stop-opacity=".784"/></linearGradient><linearGradient id="l"><stop offset="0" stop-opacity=".333"/><stop offset="1" stop-opacity=".078"/></linearGradient><linearGradient id="e"><stop offset="0" stop-color="#c8c8c8"/><stop offset="1" stop-color="#646464"/></linearGradient><linearGradient id="d"><stop offset="0" stop-color="#d7d7d7"/><stop offset="1" stop-color="#c8c8c8"/></linearGradient><linearGradient id="c"><stop offset="0" stop-color="#d7d7d7"/><stop offset="1" stop-color="#fff"/></linearGradient><linearGradient x1="24.042" y1="215.043" x2="340.825" y2="215.043" id="f" xlink:href="#c" gradientUnits="userSpaceOnUse"/><linearGradient x1="51.5" y1="197.354" x2="51.5" y2="137.499" id="g" xlink:href="#d" gradientUnits="userSpaceOnUse" gradientTransform="translate(-.5 6.75)"/><linearGradient x1="58" y1="157" x2="371.5" y2="157" id="h" xlink:href="#e" gradientUnits="userSpaceOnUse"/><mask id="m"><g stroke-width="15" stroke-linecap="round" stroke-linejoin="round"><path fill="url(#f)" d="M24.042 198.073h316.784v33.94H24.042z"/><path fill="url(#g)" d="M24 144.25h41V204H24z"/><path fill="url(#h)" d="M58 118h313.5v78H58z"/></g></mask><linearGradient x1="24.042" y1="215.043" x2="340.825" y2="215.043" id="i" xlink:href="#c" gradientUnits="userSpaceOnUse"/><linearGradient x1="51.5" y1="197.354" x2="51.5" y2="137.499" id="j" xlink:href="#d" gradientUnits="userSpaceOnUse" gradientTransform="translate(-.5 6.75)"/><linearGradient x1="58" y1="157" x2="371.5" y2="157" id="k" xlink:href="#e" gradientUnits="userSpaceOnUse"/><mask id="n"><g stroke-width="15" stroke-linecap="round" stroke-linejoin="round"><path fill="url(#i)" d="M24.042 198.073h316.784v33.94H24.042z" transform="matrix(1 0 0 -1 216 226.014)"/><path fill="url(#j)" d="M24 144.25h41V204H24z" transform="matrix(1 0 0 -1 216 226.014)"/><path fill="url(#k)" d="M58 118h313.5v78H58z" transform="matrix(1 0 0 -1 216 226.014)"/></g></mask></defs><g fill-rule="evenodd"><path d="M225 181c0 14.076-11.424 25.5-25.5 25.5S174 195.076 174 181s11.424-25.5 25.5-25.5S225 166.924 225 181zm-32.75-7.75c-3.192 4.063-4.633 12.376-8.57 7.75-1.914-2.25.794-10.483 3.82-13.25 2.787-2.548 9.528-6.98 12.434-4.88 5.334 3.856-4.177 5.915-7.684 10.38z"/><path d="M354 202c26-24 31-74-157-74-94.5 0-169.5 23.62-169.5 50.5 0 22.272 39 50.5 172.5 50.5 74.98 0 98.32-6.42 104.67-7.382 4.557-.692 34.377 2.93 32.86-12.398-.996-10.07-17.425-2.762-26.116 1.608C297.19 217.98 270.11 222.354 200 222.354-31.176 222.354-7.79 134 197 134c224.056 0 157 70 157 68z" mask="url(#m)"/><path d="M354 202c26-24 31-74-157-74-94.5 0-169.5 23.62-169.5 50.5 0 22.272 39 50.5 172.5 50.5 74.98 0 98.32-6.42 104.67-7.382 4.557-.692 34.377 2.93 32.86-12.398-.996-10.07-17.425-2.762-26.116 1.608C297.19 217.98 270.11 222.354 200 222.354-31.176 222.354-7.79 134 197 134c224.056 0 157 70 157 68z" transform="rotate(90 198.315 179.5)" mask="url(#m)"/><path d="M570 24.014c26 24 31 74-157 74-94.5 0-169.5-23.62-169.5-50.5 0-22.273 39-50.5 172.5-50.5 74.98 0 98.32 6.42 104.67 7.382 4.557.69 34.377-2.93 32.86 12.398-.996 10.07-17.425 2.76-26.116-1.61C513.19 8.035 486.11 3.66 416 3.66c-231.176 0-207.79 88.354-3 88.354 224.056 0 157-70 157-68z" transform="rotate(-135 334.742 158.347)" mask="url(#n)"/><path d="M570 24.014c26 24 31 74-157 74-94.5 0-169.5-23.62-169.5-50.5 0-22.273 39-50.5 172.5-50.5 74.98 0 98.32 6.42 104.67 7.382 4.557.69 34.377-2.93 32.86 12.398-.996 10.07-17.425 2.76-26.116-1.61C513.19 8.035 486.11 3.66 416 3.66c-231.176 0-207.79 88.354-3 88.354 224.056 0 157-70 157-68z" transform="rotate(-45 467.866 373.563)" mask="url(#n)"/></g></svg>
